X: 31
T: Zealand
M:6/8
R:jig
L:1/8
Z:Alf Warnock - alf0@rogers.com
K:G
G|"G"G2d d2e|d3 B>AB|"C"c>dc "D"A>GF|"G"G3 G2G|
"D"A2B cAd/c/|"G"B3 "D"A2f|"G"g>ag "A"e>d^c|"D"d3-d2:|
(3e/f/g/|"G"g>fg "C"e2f|"G"g3 B>AB|"Am"c>Bc "G"B>cd|"C"e3 "D"B2e/f/|
"G"g>fg B>cd|"Em"G2G A2B|"C"c>dB "D"A>GF|"G"G3-G2:|
